X:1
L:1/8
M:2/2
K:G
 d2 ge dBAG | FDAD BDAF | G3 E DGBG | FAdc BGGB | d2 ge dBAG | (3FED AD BDAF | GFGE DGBG | 
 FAdc BG G2 || gedB cAAg | fdad bdad | gedB cAAc | dega bg{a}gf | gedB cAAg | fd (3ddd bdaf | 
 gedB cAAc | dega bg{a}ge ||
